archdroid-icon-theme/Archdroid-Amber/mimetypes/scalable/application-pdf.svg

<?xml version="1.0" encoding="UTF-8" standalone="no"?>
<svg
   xmlns:dc="http://purl.org/dc/elements/1.1/"
   xmlns:cc="http://creativecommons.org/ns#"
   xmlns:rdf="http://www.w3.org/1999/02/22-rdf-syntax-ns#"
   xmlns:svg="http://www.w3.org/2000/svg"
   xmlns="http://www.w3.org/2000/svg"
   xmlns:sodipodi="http://sodipodi.sourceforge.net/DTD/sodipodi-0.dtd"
   xmlns:inkscape="http://www.inkscape.org/namespaces/inkscape"
   fill="#FFC107"
   width="48"
   height="48"
   viewBox="0 0 48 48"
   id="svg2"
   version="1.1"
   inkscape:version="0.91 r13725"
   sodipodi:docname="application-pdf.svg">
  <metadata
     id="metadata10">
    <rdf:RDF>
      <cc:Work
         rdf:about="">
        <dc:format>image/svg+xml</dc:format>
        <dc:type
           rdf:resource="http://purl.org/dc/dcmitype/StillImage" />
        <dc:title />
      </cc:Work>
    </rdf:RDF>
  </metadata>
  <defs
     id="defs8">
    <linearGradient
       gradientTransform="scale(1.0058652,0.994169)"
       gradientUnits="userSpaceOnUse"
       id="ButtonShadow"
       y2="7.0165396"
       x2="45.447727"
       y1="92.539597"
       x1="45.447727">
      <stop
         offset="0"
         style="stop-color:#000000;stop-opacity:1"
         id="stop3750" />
      <stop
         offset="1"
         style="stop-color:#000000;stop-opacity:0.58823532"
         id="stop3752" />
    </linearGradient>
    <filter
       id="filter3174"
       color-interpolation-filters="sRGB">
      <feGaussianBlur
         id="feGaussianBlur3176"
         stdDeviation="1.71" />
    </filter>
  </defs>
  <sodipodi:namedview
     pagecolor="#ffffff"
     bordercolor="#666666"
     borderopacity="1"
     objecttolerance="10"
     gridtolerance="10"
     guidetolerance="10"
     inkscape:pageopacity="0"
     inkscape:pageshadow="2"
     inkscape:window-width="1366"
     inkscape:window-height="713"
     id="namedview6"
     showgrid="false"
     inkscape:snap-bbox="true"
     inkscape:snap-bbox-midpoints="true"
     inkscape:snap-object-midpoints="true"
     inkscape:snap-bbox-edge-midpoints="true"
     inkscape:bbox-nodes="true"
     inkscape:zoom="8.739158711327775"
     inkscape:cx="-15.96219249273615"
     inkscape:cy="25.40509088005041"
     inkscape:window-x="0"
     inkscape:window-y="30"
     inkscape:window-maximized="1"
     inkscape:current-layer="svg2" />
  <path
     id="path4171"
     style="fill:#d81000;fill-opacity:1"
     d="M 8.0058594,28.982422 8,40 C 8,42.21 9.770468599999999,44 11.980469,44 l 11.123047,0 c 0,-4.022924 -1.344492,-7.181056 -3.746094,-10.375 C 16.930124,30.396876 13.364364,29.488726 8.0058594,28.982422 Z M 26.714844,21.416016 c -4.525202,3.233328 -9.782058,5.586128 -15.076172,6.294922 3.958852,0.916252 6.895847,2.150954 9.220703,4.816406 2.352514,2.697153 4.091797,7.461744 4.091797,11.472656 l 2.283203,0 C 25.622183,36.689873 25.409783,28.994611 26.714844,21.416016 Z m 9.34375,-9.357422 c -1.41862599999999,2.098525 -3.170618,4.130158 -5.185547,6.005859 -0.01073,9.15883 2.407083,18.827033 7.947265,24.769531 C 39.548123,42.109697 40,41.108512 40,40 L 40,16 36.058594,12.058594 Z M 31.988281,7.988281200000002 C 31.460191,10.326027 31.069763,12.813428 30.931641,15.408203 c 1.456027,-1.50738 2.731508,-3.087674 3.792968,-4.683594 L 31.988281,7.988281200000002 Z M 12,4 C 9.789999999999999,4 8.0195313,5.79 8.019531199999999,8 L 8.0078125,26.09375 C 14.06497,26.241251 20.522596,23.693787 25.90625,19.796875 26.378336,19.455158 26.839525,19.118657 27.292969,18.757812 28.156631,14.837502 29.455732,10.948273 31.164062,7.1640625 L 28,4 12,4 Z" />
  <g
     id="layer2"
     style="display:none"
     transform="translate(-51.254237,6.8389831)">
    <rect
       width="86"
       height="85"
       rx="6"
       ry="6"
       x="5"
       y="7"
       id="rect3745"
       style="opacity:0.9;fill:url(#ButtonShadow);fill-opacity:1;fill-rule:nonzero;stroke:none;filter:url(#filter3174)" />
  </g>
</svg>

<svg xmlns="http://www.w3.org/2000/svg" fill="#FFC107" viewBox="0 0 48 48"><path d="m8.01 28.982l-.006 11.02c0 2.21 1.77 4 3.98 4h11.123c0-4.02-1.344-7.181-3.746-10.375-2.427-3.228-5.993-4.136-11.352-4.643m18.709-7.566c-4.525 3.233-9.782 5.586-15.08 6.295 3.959.916 6.896 2.151 9.221 4.816 2.353 2.697 4.092 7.462 4.092 11.473h2.283c-1.612-7.31-1.825-15.01-.52-22.584m9.344-9.357c-1.419 2.099-3.171 4.13-5.186 6.01-.011 9.159 2.407 18.827 7.947 24.77.728-.724 1.18-1.725 1.18-2.834v-24l-3.941-3.941m-4.07-4.07c-.528 2.338-.919 4.825-1.057 7.42 1.456-1.507 2.732-3.088 3.793-4.684l-2.736-2.736m-19.988-3.988c-2.21 0-3.98 1.79-3.98 4l-.012 18.09c6.06.148 12.515-2.4 17.898-6.297.472-.342.933-.678 1.387-1.039.864-3.92 2.163-7.81 3.871-11.594l-3.164-3.164h-16" fill="#d81000"/></svg>
